static/app-icons/dark-theme/111.svg

<svg xmlns="http://www.w3.org/2000/svg" viewBox="0 0 32 32"><defs><linearGradient id="linear-gradient" x1="-144.903" y1="-24.5" x2="-134.903" y2="-24.5" gradientTransform="translate(153.903 49.5)" gradientUnits="userSpaceOnUse"><stop offset=".001" stop-opacity="0"/><stop offset=".83"/></linearGradient><linearGradient id="linear-gradient-2" y1="32" x2="32" gradientUnits="userSpaceOnUse"><stop offset=".1" stop-color="#3ddbd9"/><stop offset=".9" stop-color="#4589ff"/></linearGradient><style>.cls-1{fill:#fff}.cls-5{fill:#f4f4f4}</style><mask id="mask" x="0" y="0" width="32" height="32" maskUnits="userSpaceOnUse"><path class="cls-1" d="M8 22v-3H6v3a4.01 4.01 0 004.005 4H18v-2h-7.995A2.007 2.007 0 018 22z"/><path fill="url(#linear-gradient)" d="M9 23h10v4H9z" id="Gradients_black_" data-name="Gradients (black)"/><path class="cls-1" d="M30 12a4 4 0 00-4-4h-2v2h2a2 2 0 012 2v10a2.007 2.007 0 01-2 2h-5.577l-3.465 6 1.732 1 2.887-5H26a4.01 4.01 0 004-4z"/></mask></defs><g id="Layer_2" data-name="Layer 2"><g id="Dark_theme_icons" data-name="Dark theme icons"><g mask="url(#mask)"><path fill="url(#linear-gradient-2)" d="M0 0h32v32H0z"/></g><path class="cls-5" d="M20 8a1 1 0 001-1V3a1 1 0 00-1-1H3a1 1 0 00-1 1v4a1 1 0 001 1 1 1 0 010 2 1 1 0 00-1 1v4a1 1 0 001 1h17a1 1 0 001-1v-4a1 1 0 00-1-1 1 1 0 010-2zm-1-1.829a3 3 0 000 5.658V14h-5v-2h-2v2H4v-2.171a3 3 0 000-5.658V4h8v2h2V4h5z"/><path class="cls-5" d="M12 8h2v2h-2z"/></g></g></svg>

<svg xmlns="http://www.w3.org/2000/svg" xmlns:xlink="http://www.w3.org/1999/xlink" viewBox="0 0 32 32"><defs><style>.cls-1{fill:#fff;}.cls-2{fill:url(#linear-gradient);}.cls-3{mask:url(#mask);}.cls-4{fill:url(#linear-gradient-2);}.cls-5{fill:#f4f4f4;}</style><linearGradient id="linear-gradient" x1="-144.903" y1="-24.5" x2="-134.903" y2="-24.5" gradientTransform="translate(153.903 49.5)" gradientUnits="userSpaceOnUse"><stop offset="0.001" stop-opacity="0"/><stop offset="0.83"/></linearGradient><mask id="mask" x="0" y="0" width="32" height="32" maskUnits="userSpaceOnUse"><path class="cls-1" d="M8,22V19H6v3a4.01,4.01,0,0,0,4.005,4H18V24H10.005A2.007,2.007,0,0,1,8,22Z"/><g id="Gradients_black_" data-name="Gradients (black)"><rect class="cls-2" x="9" y="23" width="10" height="4"/></g><path class="cls-1" d="M30,12a4,4,0,0,0-4-4H24v2h2a2,2,0,0,1,2,2V22a2.007,2.007,0,0,1-2,2H20.423l-3.465,6,1.732,1,2.887-5H26a4.01,4.01,0,0,0,4-4Z"/></mask><linearGradient id="linear-gradient-2" y1="32" x2="32" gradientUnits="userSpaceOnUse"><stop offset="0.1" stop-color="#3ddbd9"/><stop offset="0.9" stop-color="#4589ff"/></linearGradient></defs><g id="Layer_2" data-name="Layer 2"><g id="Dark_theme_icons" data-name="Dark theme icons"><g class="cls-3"><rect class="cls-4" width="32" height="32"/></g><path class="cls-5" d="M20,8a1,1,0,0,0,1-1V3a1,1,0,0,0-1-1H3A1,1,0,0,0,2,3V7A1,1,0,0,0,3,8a1,1,0,0,1,0,2,1,1,0,0,0-1,1v4a1,1,0,0,0,1,1H20a1,1,0,0,0,1-1V11a1,1,0,0,0-1-1,1,1,0,0,1,0-2ZM19,6.171a3,3,0,0,0,0,5.658V14H14V12H12v2H4V11.829A3,3,0,0,0,4,6.171V4h8V6h2V4h5Z"/><rect class="cls-5" x="12" y="8" width="2" height="2"/></g></g></svg>
